X: 12866
T: Fermoy Lasses, The
R: reel
M: 4/4
K: Eminor
|:BA|GE E2 BE E2|GE E2 B3A|GE E2 BE E2|AFDF AcBA|
GE E2 BE E2|GE E2 B3A|G3F GBdB|AFDF AcBA:|
|:G2 BG dGBG|G2 (3Bcd efg2|G2 BG dGBG|AFDF AcBA|
G2 BG dGBG|G2 (3Bcd efg2|afge dedB|AFDF AcBA:|

